static/images/past-sponsors/google.svg

<svg fill="none" height="60" viewBox="0 0 302 60" width="302" xmlns="http://www.w3.org/2000/svg"><path d="m140.328 30.4656c0 6.6626-5.212 11.5722-11.609 11.5722-6.396 0-11.609-4.9096-11.609-11.5722 0-6.7096 5.213-11.5722 11.609-11.5722 6.397 0 11.609 4.8626 11.609 11.5722zm-5.082 0c0-4.1635-3.021-7.0122-6.527-7.0122s-6.527 2.8487-6.527 7.0122c0 4.1217 3.021 7.0122 6.527 7.0122s6.527-2.8957 6.527-7.0122z" fill="#ea4335"/><path d="m165.372 30.4656c0 6.6626-5.212 11.5722-11.609 11.5722s-11.609-4.9096-11.609-11.5722c0-6.7043 5.212-11.5722 11.609-11.5722s11.609 4.8626 11.609 11.5722zm-5.082 0c0-4.1635-3.021-7.0122-6.527-7.0122s-6.527 2.8487-6.527 7.0122c0 4.1217 3.021 7.0122 6.527 7.0122s6.527-2.8957 6.527-7.0122z" fill="#fbbc05"/><path d="m189.373 19.5926v20.7756c0 8.5461-5.04 12.0365-10.998 12.0365-5.609 0-8.985-3.7513-10.258-6.8191l4.425-1.8417c.787 1.8834 2.718 4.1061 5.827 4.1061 3.814 0 6.178-2.3531 6.178-6.7827v-1.6643h-.178c-1.137 1.4035-3.328 2.6296-6.094 2.6296-5.786 0-11.087-5.04-11.087-11.5253 0-6.5321 5.301-11.6139 11.087-11.6139 2.76 0 4.952 1.2261 6.094 2.5879h.178v-1.8835h4.826zm-4.466 10.9147c0-4.0747-2.719-7.0539-6.178-7.0539-3.506 0-6.443 2.9792-6.443 7.0539 0 4.0331 2.937 6.9705 6.443 6.9705 3.459 0 6.178-2.9374 6.178-6.9705z" fill="#4285f4"/><path d="m197.328 7.41528v33.91302h-4.957v-33.91302z" fill="#34a853"/><path d="m216.643 34.2744 3.944 2.6296c-1.273 1.8834-4.341 5.1287-9.642 5.1287-6.574 0-11.483-5.0818-11.483-11.5722 0-6.8818 4.951-11.5722 10.915-11.5722 6.005 0 8.942 4.7791 9.902 7.3617l.527 1.3148-15.469 6.407c1.184 2.3217 3.026 3.5061 5.608 3.5061 2.588 0 4.383-1.2731 5.698-3.2035zm-12.141-4.1635 10.341-4.2939c-.569-1.4452-2.28-2.4522-4.294-2.4522-2.583 0-6.178 2.28-6.047 6.7461z" fill="#ea4335"/><path d="m98.3493 27.4552v-4.9096h16.5447c.161.8557.245 1.8679.245 2.9635 0 3.6835-1.007 8.2383-4.252 11.4835-3.157 3.287-7.19 5.04-12.5324 5.04-9.9026 0-18.2296-8.0661-18.2296-17.9687s8.327-17.96869 18.2296-17.96869c5.4784 0 9.3804 2.14957 12.3134 4.95129l-3.465 3.4644c-2.102-1.9722-4.951-3.5061-8.8537-3.5061-7.2313 0-12.8869 5.8278-12.8869 13.0591s5.6556 13.0591 12.8869 13.0591c4.6907 0 7.3617-1.8834 9.0727-3.5947 1.388-1.3879 2.301-3.3705 2.661-6.0783z" fill="#4285f4"/></svg>

<svg width="302" height="60" viewBox="0 0 302 60" fill="none" xmlns="http://www.w3.org/2000/svg">
<path d="M140.328 30.4656C140.328 37.1282 135.116 42.0378 128.719 42.0378C122.323 42.0378 117.11 37.1282 117.11 30.4656C117.11 23.756 122.323 18.8934 128.719 18.8934C135.116 18.8934 140.328 23.756 140.328 30.4656ZM135.246 30.4656C135.246 26.3021 132.225 23.4534 128.719 23.4534C125.213 23.4534 122.192 26.3021 122.192 30.4656C122.192 34.5873 125.213 37.4778 128.719 37.4778C132.225 37.4778 135.246 34.5821 135.246 30.4656Z" fill="#EA4335"/>
<path d="M165.372 30.4656C165.372 37.1282 160.16 42.0378 153.763 42.0378C147.366 42.0378 142.154 37.1282 142.154 30.4656C142.154 23.7613 147.366 18.8934 153.763 18.8934C160.16 18.8934 165.372 23.756 165.372 30.4656ZM160.29 30.4656C160.29 26.3021 157.269 23.4534 153.763 23.4534C150.257 23.4534 147.236 26.3021 147.236 30.4656C147.236 34.5873 150.257 37.4778 153.763 37.4778C157.269 37.4778 160.29 34.5821 160.29 30.4656Z" fill="#FBBC05"/>
<path d="M189.373 19.5926V40.3682C189.373 48.9143 184.333 52.4047 178.375 52.4047C172.766 52.4047 169.39 48.6534 168.117 45.5856L172.542 43.7439C173.329 45.6273 175.26 47.85 178.369 47.85C182.183 47.85 184.547 45.4969 184.547 41.0673V39.403H184.369C183.232 40.8065 181.041 42.0326 178.275 42.0326C172.489 42.0326 167.188 36.9926 167.188 30.5073C167.188 23.9752 172.489 18.8934 178.275 18.8934C181.035 18.8934 183.227 20.1195 184.369 21.4813H184.547V19.5978H189.373V19.5926ZM184.907 30.5073C184.907 26.4326 182.188 23.4534 178.729 23.4534C175.223 23.4534 172.286 26.4326 172.286 30.5073C172.286 34.5404 175.223 37.4778 178.729 37.4778C182.188 37.4778 184.907 34.5404 184.907 30.5073Z" fill="#4285F4"/>
<path d="M197.328 7.41528V41.3283H192.371V7.41528H197.328Z" fill="#34A853"/>
<path d="M216.643 34.2744L220.587 36.904C219.314 38.7874 216.246 42.0327 210.945 42.0327C204.371 42.0327 199.462 36.9509 199.462 30.4605C199.462 23.5787 204.413 18.8883 210.377 18.8883C216.382 18.8883 219.319 23.6674 220.279 26.25L220.806 27.5648L205.337 33.9718C206.521 36.2935 208.363 37.4779 210.945 37.4779C213.533 37.4779 215.328 36.2048 216.643 34.2744ZM204.502 30.1109L214.843 25.817C214.274 24.3718 212.563 23.3648 210.549 23.3648C207.966 23.3648 204.371 25.6448 204.502 30.1109Z" fill="#EA4335"/>
<path d="M98.3493 27.4552V22.5456H114.894C115.055 23.4013 115.139 24.4135 115.139 25.5091C115.139 29.1926 114.132 33.7474 110.887 36.9926C107.73 40.2796 103.697 42.0326 98.3546 42.0326C88.452 42.0326 80.125 33.9665 80.125 24.0639C80.125 14.1613 88.452 6.09521 98.3546 6.09521C103.833 6.09521 107.735 8.24478 110.668 11.0465L107.203 14.5109C105.101 12.5387 102.252 11.0048 98.3493 11.0048C91.118 11.0048 85.4624 16.8326 85.4624 24.0639C85.4624 31.2952 91.118 37.123 98.3493 37.123C103.04 37.123 105.711 35.2396 107.422 33.5283C108.81 32.1404 109.723 30.1578 110.083 27.45L98.3493 27.4552Z" fill="#4285F4"/>
</svg>
